T: Gimboling Gyre, The
M: 4/4
L: 1/8
K: Gmaj
~ | edcA E^EFB | G2 g2 G2 :|~ | edcA E^EFB | ~ | fecA e^efb | g2 d2 G2 :|
